Suru++-Ubuntu/apps/scalable/org.gnome.Totem.svg

<svg width="256" height="256" version="1.1" viewBox="0 0 67.73 67.73" xmlns="http://www.w3.org/2000/svg" xmlns:xlink="http://www.w3.org/1999/xlink">
 <defs>
  <linearGradient id="linearGradient4216" x1="56" x2="56" y1="288" y2="83.578" gradientTransform="matrix(.5 0 0 .5 12 10)" gradientUnits="userSpaceOnUse" spreadMethod="reflect">
   <stop style="stop-color:#ffffff" offset="0"/>
   <stop style="stop-color:#ffffff" offset=".646"/>
   <stop style="stop-color:#ffffff;stop-opacity:.035" offset="1"/>
  </linearGradient>
  <clipPath id="clipPath942-3">
   <path d="M 188.96875,44 C 261.6174,44 272,54.356615 272,126.9375 v 58.125 C 272,257.64309 261.6174,268 188.96875,268 h -73.9375 C 42.3826,268 32,257.64309 32,185.0625 v -58.125 C 32,54.356615 42.3826,44 115.03125,44 Z" style="fill:#46a926"/>
  </clipPath>
  <linearGradient id="linearGradient4470" x1="256" x2="256" y1="375" y2="135.281" gradientTransform="matrix(.13229166 0 0 .13229166 -.03639302 229.38096)" gradientUnits="userSpaceOnUse">
   <stop style="stop-color:#ffffff" offset="0"/>
   <stop style="stop-color:#f1edd7" offset="1"/>
  </linearGradient>
  <filter id="filter4460" x="-.01" y="-.01" width="1.026" height="1.023" style="color-interpolation-filters:sRGB">
   <feGaussianBlur stdDeviation="1.133"/>
  </filter>
  <linearGradient id="linearGradient4413" x1="256" x2="256" y1="138" y2="375" gradientUnits="userSpaceOnUse">
   <stop style="stop-color:#000000;stop-opacity:0" offset="0"/>
   <stop style="stop-color:#000000" offset=".505"/>
   <stop style="stop-color:#000000;stop-opacity:0" offset="1"/>
  </linearGradient>
  <linearGradient id="linearGradient1108" x1="296" x2="296" y1="-212" y2="236" gradientUnits="userSpaceOnUse">
   <stop style="stop-color:#ffffff" offset="0"/>
   <stop style="stop-color:#ffffff;stop-opacity:.09803922" offset=".125"/>
   <stop style="stop-color:#000000;stop-opacity:.09803922" offset=".925"/>
   <stop style="stop-color:#000000;stop-opacity:.49803922" offset="1"/>
  </linearGradient>
  <clipPath id="clipPath1082-3-75">
   <path d="M 361.9375,-212 C 507.2348,-212 528,-191.28677 528,-46.125 V 70.125 C 528,215.28618 507.2348,236 361.9375,236 H 214.0625 C 68.7652,236 48,215.28618 48,70.125 V -46.125 C 48,-191.28677 68.7652,-212 214.0625,-212 Z" style="fill:#8c59d9"/>
  </clipPath>
  <filter id="filter933" x="-.02" y="-.03" width="1.046" height="1.05" style="color-interpolation-filters:sRGB">
   <feGaussianBlur stdDeviation="2.32"/>
  </filter>
  <filter id="filter4569" x="-.01" y="-.01" width="1.023" height="1.025" style="color-interpolation-filters:sRGB">
   <feGaussianBlur stdDeviation="1.16"/>
  </filter>
  <radialGradient id="radialGradient1802" cx="20.819" cy="231.421" r="31.75" gradientTransform="matrix(.69875563 .00224916 -.00199493 .61977721 6.7332835 90.066522)" gradientUnits="userSpaceOnUse">
   <stop style="stop-color:#50dbb5" offset="0"/>
   <stop style="stop-color:#4a86cf" offset="1"/>
  </radialGradient>
  <radialGradient id="radialGradient1826" cx="96.884" cy="248.06" r="120" gradientTransform="matrix(1.3674706,-2.3192224e-4,3.108802e-4,1.8330775,-35.679142,-214.60588)" gradientUnits="userSpaceOnUse">
   <stop style="stop-color:#f6d123" offset="0"/>
   <stop style="stop-color:#2dc0af;stop-opacity:.13779527" offset="1"/>
  </radialGradient>
 </defs>
 <g transform="translate(0,-229.26666)">
  <path transform="matrix(.26458333 0 0 .26458333 -1.8735233e-8 232.67026)" d="m162.53675 3.5680001c72.64865 0 83.03125 10.356615 83.03125 82.937505v58.125005c0 72.58059-10.3826 82.9375-83.03125 82.9375h-73.937496c-72.648654 0-83.031254-10.35691-83.031254-82.9375v-58.125005c0-72.58089 10.3826-82.937505 83.031254-82.937505z" style="filter:url(#filter4569);opacity:.1"/>
  <path transform="matrix(.26458333 0 0 .26458333 -1.8735233e-8 232.67026)" d="m162.53675 5.5680001c72.64865 0 83.03125 10.356615 83.03125 82.937505v58.125005c0 72.58059-10.3826 82.9375-83.03125 82.9375h-73.937496c-72.648654 0-83.031254-10.35691-83.031254-82.9375v-58.125005c0-72.58089 10.3826-82.937505 83.031254-82.937505z" style="filter:url(#filter933);opacity:.2"/>
  <path d="m43.004513 233.61429c19.221622 0 21.968685 2.74019 21.968685 21.94388v15.37891c0 19.20362-2.747063 21.94388-21.968685 21.94388h-19.56263c-19.221622 0-21.968685-2.74026-21.968685-21.94388v-15.37891c0-19.20369 2.747063-21.94388 21.968685-21.94388z" style="fill:url(#radialGradient1802)"/>
  <path transform="matrix(.26458333 0 0 .26458333 0 229.26666)" d="m88.599609 16.431641c-9.081081 0-17.189179 0.162942-24.425781 0.58789-3.618301 0.212474-7.019662 0.489003-10.214844 0.845703-3.195181 0.356701-6.185025 0.792107-8.982422 1.31836-2.797396 0.526252-5.401227 1.144104-7.826171 1.865234-2.424945 0.721131-4.670221 1.546947-6.748047 2.488281-2.077827 0.941335-3.988099 1.998683-5.744141 3.185547-1.756042 1.186865-3.358768 2.503217-4.818359 3.960938-1.459592 1.45772-2.77637 3.056644-3.964844 4.810547-1.188474 1.753902-2.248715 3.66287-3.191406 5.738281-0.942692 2.075411-1.767993 4.317989-2.490235 6.740234-0.7222414 2.422245-1.3400611 5.023955-1.8671871 7.81836-0.527126 2.794404-0.9629686 5.780765-1.3203125 8.972656s-0.6367138 6.588422-0.8496094 10.203125c-0.4257911 7.229405-0.5878906 15.329734-0.5878906 24.402344v58.124999c0 9.07258 0.1620995 17.17296 0.5878906 24.40234 0.2128956 3.6147 0.4922655 7.01124 0.8496094 10.20313 0.3573439 3.19188 0.7931865 6.18021 1.3203125 8.97461s1.1449457 5.39611 1.8671871 7.81836c0.722242 2.42224 1.547543 4.66482 2.490235 6.74023 0.942691 2.07541 2.002932 3.98243 3.191406 5.73633 1.188474 1.75391 2.505252 3.35478 3.964844 4.8125 1.459591 1.45773 3.062317 2.77212 4.818359 3.95898 1.756042 1.18687 3.666314 2.24617 5.744141 3.1875 2.077826 0.94134 4.323102 1.7652 6.748047 2.48633 2.424944 0.72114 5.028775 1.33898 7.826171 1.86524 2.797397 0.52626 5.787241 0.96165 8.982422 1.31836 3.195182 0.3567 6.596543 0.63518 10.214844 0.84765 7.236602 0.42496 15.3447 0.58594 24.425781 0.58594h73.937501c9.08108 0 17.18918-0.16098 24.42578-0.58594 3.6183-0.21247 7.01771-0.49095 10.21289-0.84765 3.19518-0.35671 6.18503-0.7921 8.98242-1.31836 2.7974-0.52626 5.40318-1.1441 7.82813-1.86524 2.42494-0.72113 4.67022-1.54499 6.74805-2.48633 2.07782-0.94133 3.98809-2.00063 5.74414-3.1875 1.75604-1.18686 3.35681-2.50125 4.8164-3.95898 1.45959-1.45772 2.77832-3.05859 3.9668-4.8125 1.18847-1.7539 2.24676-3.66092 3.18945-5.73633s1.76995-4.31799 2.49219-6.74023c0.72224-2.42225 1.34006-5.02396 1.86719-7.81836 0.52712-2.7944 0.96297-5.78273 1.32031-8.97461 0.35734-3.19189 0.63671-6.58843 0.84961-10.20313 0.42579-7.22938 0.58789-15.32976 0.58789-24.40234v-58.124999c0-9.07261-0.1621-17.172939-0.58789-24.402344-0.2129-3.614703-0.49227-7.011234-0.84961-10.203125s-0.79319-6.178252-1.32031-8.972656c-0.52713-2.794405-1.14495-5.396115-1.86719-7.81836s-1.5495-4.664823-2.49219-6.740234-2.00098-3.984379-3.18945-5.738281c-1.18848-1.753903-2.50721-3.352827-3.9668-4.810547-1.45959-1.457721-3.06036-2.774073-4.8164-3.960938-1.75605-1.186864-3.66632-2.244212-5.74414-3.185547-2.07783-0.941334-4.32311-1.76715-6.74805-2.488281-2.42495-0.72113-5.03073-1.338982-7.82813-1.865234-2.79739-0.526253-5.78724-0.961659-8.98242-1.31836-3.19518-0.3567-6.59459-0.633229-10.21289-0.845703-7.2366-0.424948-15.3447-0.58789-24.42578-0.58789h-73.937501z" style="fill:url(#radialGradient1826)"/>
  <path d="m28.369747 245.78513-4.655012 9.47952v7.83828c-0.653513 0.76571-1.367793 1.5373-2.112531 2.28204-2.44781 2.4478-5.192145 4.58877-7.027996 5.20071l-3.092318-3.08818-9.479525 4.65501v22.58054h33.866666v-42.01088c-2.039491-4.42431-4.282038-6.07499-7.499284-6.93704zm-12.906705 30.29479c9.26e-4 -5.3e-4 0.0032 5.3e-4 0.0041 0-0.345379 0.21569-0.694661 0.42686-1.045931 0.63665 0.351357-0.20976 0.696343-0.421 1.041803-0.63665zm-3.187402 1.86035c0.0011-5.3e-4 0.0031 5.3e-4 0.0041 0-0.362722 0.19832-0.731389 0.3943-1.099674 0.58705 0.368336-0.19273 0.732771-0.38875 1.095547-0.58705z" style="fill-opacity:0;opacity:.05"/>
  <path transform="matrix(.13229167 0 0 .13229167 -4.876802 261.66013)" d="M 361.9375,-212 C 507.2348,-212 528,-191.28677 528,-46.125 V 70.125 C 528,215.28618 507.2348,236 361.9375,236 H 214.0625 C 68.7652,236 48,215.28618 48,70.125 V -46.125 C 48,-191.28677 68.7652,-212 214.0625,-212 Z" clip-path="url(#clipPath1082-3-75)" style="fill:none;opacity:.4;stroke-linecap:round;stroke-linejoin:round;stroke-width:8;stroke:url(#linearGradient1108)"/>
  <path transform="matrix(.13229167 0 0 .13229167 -.03639302 229.38096)" d="m155.41127 137.99999v239.99999s121.72498-49.19762 221.18971-120.07579c0-0.0217-0.0115-0.0398-0.0253-0.0645-0.0115-0.0263-0.0264-0.0523-0.0448-0.0786-0.0191-0.026-0.0374-0.0533-0.0504-0.0786-0.0147-0.0262-0.0253-0.0526-0.0253-0.0758-104.91599-73.13856-221.04372-119.62658-221.04372-119.62658z" style="fill:url(#linearGradient4413);filter:url(#filter4415);opacity:.4"/>
  <path transform="matrix(.13229167 0 0 .13229167 -.03639302 229.38096)" d="m155.41127 137.99999v239.99999s121.72498-49.19762 221.18971-120.07579c0-0.0217-0.0115-0.0398-0.0253-0.0645-0.0115-0.0263-0.0264-0.0523-0.0448-0.0786-0.0191-0.026-0.0374-0.0533-0.0504-0.0786-0.0147-0.0262-0.0253-0.0526-0.0253-0.0758-104.91599-73.13856-221.04372-119.62658-221.04372-119.62658z" style="filter:url(#filter4460);opacity:.1"/>
  <path d="m20.523222 247.37263v31.75s16.103197-6.50844 29.261553-15.88503c0-3e-3 -0.0016-5e-3 -0.0034-9e-3 -0.0016-3e-3 -0.0035-7e-3 -0.0059-0.0104-0.0026-3e-3 -0.0049-7e-3 -0.0067-0.0104-0.0019-3e-3 -0.0034-7e-3 -0.0034-0.01-13.879427-9.67517-29.242155-15.82515-29.242155-15.82515z" style="fill:url(#linearGradient4470)"/>
  <path d="m20.523148 247.37263v0.26458s15.258393 6.10639 29.090138 15.72101c0.05704-0.0405 0.114596-0.0801 0.171566-0.12067 0-3e-3 -0.0016-5e-3 -0.0034-9e-3 -0.0016-3e-3 -0.0035-7e-3 -6e-3 -0.0103-0.0026-3e-3 -5e-3 -7e-3 -0.0067-0.0104-0.0019-3e-3 -0.0034-7e-3 -0.0034-0.0101-13.879497-9.6756-29.24231-15.82563-29.24231-15.82563z" style="fill:#ffffff"/>
  <path transform="matrix(.26458333 0 0 .26458333 -6.993469 221.97263)" d="m40 52v16h20v-16zm204 0v16h20v-16zm-204 24v16h20v-16zm204 0v16h20v-16zm-204 24v16h20v-16zm204 0v16h20v-16zm-204 24v16h20v-16zm204 0v16h20v-16zm-204 24v16h20v-16zm204 0v16h20v-16zm-204 24v16h20v-16zm204 0v16h20v-16zm-204 24v16h20v-16zm204 0v16h20v-16zm-204 24v16h20v-16zm204 0v16h20v-16zm-204 24v16h20v-16zm204 0v16h20v-16z" clip-path="url(#clipPath942-3)" style="fill:url(#linearGradient4216);opacity:.3"/>
 </g>
</svg>

<svg xmlns="http://www.w3.org/2000/svg" xmlns:xlink="http://www.w3.org/1999/xlink" width="256" height="256" version="1.1" viewBox="0 0 67.73 67.73">
 <defs>
  <linearGradient id="linearGradient4216" x1="56" x2="56" y1="288" y2="83.578" gradientTransform="matrix(0.5,0,0,0.5,12,10)" gradientUnits="userSpaceOnUse" spreadMethod="reflect" xlink:href="#linearGradient4210"/>
  <linearGradient id="linearGradient4210">
   <stop style="stop-color:#ffffff" offset="0"/>
   <stop offset=".646" style="stop-color:#ffffff"/>
   <stop style="stop-color:#ffffff;stop-opacity:0.035" offset="1"/>
  </linearGradient>
  <clipPath id="clipPath942-3" clipPathUnits="userSpaceOnUse">
   <path d="M 188.96875,44 C 261.6174,44 272,54.356615 272,126.9375 v 58.125 C 272,257.64309 261.6174,268 188.96875,268 h -73.9375 C 42.3826,268 32,257.64309 32,185.0625 v -58.125 C 32,54.356615 42.3826,44 115.03125,44 Z" style="fill:#46a926"/>
  </clipPath>
  <linearGradient id="linearGradient4470" x1="256" x2="256" y1="375" y2="135.281" gradientTransform="matrix(0.13229166,0,0,0.13229166,-0.03639302,229.38096)" gradientUnits="userSpaceOnUse" xlink:href="#linearGradient4464"/>
  <linearGradient id="linearGradient4464">
   <stop offset="0" style="stop-color:#ffffff"/>
   <stop offset="1" style="stop-color:#f1edd7"/>
  </linearGradient>
  <filter style="color-interpolation-filters:sRGB" id="filter4460" width="1.026" height="1.023" x="-.01" y="-.01">
   <feGaussianBlur stdDeviation="1.133"/>
  </filter>
  <linearGradient id="linearGradient4413" x1="256" x2="256" y1="138" y2="375" gradientUnits="userSpaceOnUse" xlink:href="#linearGradient4295"/>
  <linearGradient id="linearGradient4295">
   <stop style="stop-color:#000000;stop-opacity:0" offset="0"/>
   <stop offset=".505" style="stop-color:#000000"/>
   <stop style="stop-color:#000000;stop-opacity:0" offset="1"/>
  </linearGradient>
  <linearGradient id="linearGradient1108" x1="296" x2="296" y1="-212" y2="236" gradientUnits="userSpaceOnUse" xlink:href="#linearGradient1013"/>
  <linearGradient id="linearGradient1013">
   <stop offset="0" style="stop-color:#ffffff"/>
   <stop style="stop-color:#ffffff;stop-opacity:0.09803922" offset=".125"/>
   <stop style="stop-color:#000000;stop-opacity:0.09803922" offset=".925"/>
   <stop offset="1" style="stop-color:#000000;stop-opacity:0.49803922"/>
  </linearGradient>
  <clipPath id="clipPath1082-3-75" clipPathUnits="userSpaceOnUse">
   <path d="M 361.9375,-212 C 507.2348,-212 528,-191.28677 528,-46.125 V 70.125 C 528,215.28618 507.2348,236 361.9375,236 H 214.0625 C 68.7652,236 48,215.28618 48,70.125 V -46.125 C 48,-191.28677 68.7652,-212 214.0625,-212 Z" style="fill:#8c59d9"/>
  </clipPath>
  <filter style="color-interpolation-filters:sRGB" id="filter933" width="1.046" height="1.05" x="-.02" y="-.03">
   <feGaussianBlur stdDeviation="2.32"/>
  </filter>
  <filter style="color-interpolation-filters:sRGB" id="filter4569" width="1.023" height="1.025" x="-.01" y="-.01">
   <feGaussianBlur stdDeviation="1.16"/>
  </filter>
  <linearGradient id="linearGradient6826">
   <stop style="stop-color:#50dbb5" offset="0"/>
   <stop style="stop-color:#4a86cf" offset="1"/>
  </linearGradient>
  <linearGradient id="linearGradient6809-3">
   <stop style="stop-color:#f6d123" offset="0"/>
   <stop style="stop-color:#2dc0af;stop-opacity:0.13779527" offset="1"/>
  </linearGradient>
  <radialGradient id="radialGradient1802" cx="20.819" cy="231.421" r="31.75" fx="20.819" fy="231.421" gradientTransform="matrix(0.69875563,0.00224916,-0.00199493,0.61977721,6.7332835,90.066522)" gradientUnits="userSpaceOnUse" xlink:href="#linearGradient6826"/>
  <radialGradient id="radialGradient1826" cx="96.884" cy="248.06" r="120" fx="96.884" fy="248.06" gradientTransform="matrix(1.3674706,-2.3192224e-4,3.108802e-4,1.8330775,-35.679142,-214.60588)" gradientUnits="userSpaceOnUse" xlink:href="#linearGradient6809-3"/>
 </defs>
 <g transform="translate(0,-229.26666)">
  <path d="m 162.53675,3.5680001 c 72.64865,0 83.03125,10.3566149 83.03125,82.9375049 v 58.125005 c 0,72.58059 -10.3826,82.9375 -83.03125,82.9375 H 88.599254 C 15.9506,227.56801 5.568,217.2111 5.568,144.63051 V 86.505505 c 0,-72.58089 10.3826,-82.9375049 83.031254,-82.9375049 z" transform="matrix(0.26458333,0,0,0.26458333,-1.8735233e-8,232.67026)" style="opacity:0.1;filter:url(#filter4569)"/>
  <path style="opacity:0.2;filter:url(#filter933)" d="m 162.53675,5.5680001 c 72.64865,0 83.03125,10.3566149 83.03125,82.9375049 v 58.125005 c 0,72.58059 -10.3826,82.9375 -83.03125,82.9375 H 88.599254 C 15.9506,229.56801 5.568,219.2111 5.568,146.63051 V 88.505505 c 0,-72.58089 10.3826,-82.9375049 83.031254,-82.9375049 z" transform="matrix(0.26458333,0,0,0.26458333,-1.8735233e-8,232.67026)"/>
  <path style="fill:url(#radialGradient1802)" d="m 43.004513,233.61429 c 19.221622,0 21.968685,2.74019 21.968685,21.94388 v 15.37891 c 0,19.20362 -2.747063,21.94388 -21.968685,21.94388 h -19.56263 c -19.221622,0 -21.968685,-2.74026 -21.968685,-21.94388 v -15.37891 c 0,-19.20369 2.747063,-21.94388 21.968685,-21.94388 z"/>
  <path style="fill:url(#radialGradient1826)" d="M 88.599609 16.431641 C 79.518528 16.431641 71.41043 16.594583 64.173828 17.019531 C 60.555527 17.232005 57.154166 17.508534 53.958984 17.865234 C 50.763803 18.221935 47.773959 18.657341 44.976562 19.183594 C 42.179166 19.709846 39.575335 20.327698 37.150391 21.048828 C 34.725446 21.769959 32.48017 22.595775 30.402344 23.537109 C 28.324517 24.478444 26.414245 25.535792 24.658203 26.722656 C 22.902161 27.909521 21.299435 29.225873 19.839844 30.683594 C 18.380252 32.141314 17.063474 33.740238 15.875 35.494141 C 14.686526 37.248043 13.626285 39.157011 12.683594 41.232422 C 11.740902 43.307833 10.915601 45.550411 10.193359 47.972656 C 9.4711176 50.394901 8.8532979 52.996611 8.3261719 55.791016 C 7.7990459 58.58542 7.3632033 61.571781 7.0058594 64.763672 C 6.6485155 67.955563 6.3691456 71.352094 6.15625 74.966797 C 5.7304589 82.196202 5.5683594 90.296531 5.5683594 99.369141 L 5.5683594 157.49414 C 5.5683594 166.56672 5.7304589 174.6671 6.15625 181.89648 C 6.3691456 185.51118 6.6485155 188.90772 7.0058594 192.09961 C 7.3632033 195.29149 7.7990459 198.27982 8.3261719 201.07422 C 8.8532979 203.86862 9.4711176 206.47033 10.193359 208.89258 C 10.915601 211.31482 11.740902 213.5574 12.683594 215.63281 C 13.626285 217.70822 14.686526 219.61524 15.875 221.36914 C 17.063474 223.12305 18.380252 224.72392 19.839844 226.18164 C 21.299435 227.63937 22.902161 228.95376 24.658203 230.14062 C 26.414245 231.32749 28.324517 232.38679 30.402344 233.32812 C 32.48017 234.26946 34.725446 235.09332 37.150391 235.81445 C 39.575335 236.53559 42.179166 237.15343 44.976562 237.67969 C 47.773959 238.20595 50.763803 238.64134 53.958984 238.99805 C 57.154166 239.35475 60.555527 239.63323 64.173828 239.8457 C 71.41043 240.27066 79.518528 240.43164 88.599609 240.43164 L 162.53711 240.43164 C 171.61819 240.43164 179.72629 240.27066 186.96289 239.8457 C 190.58119 239.63323 193.9806 239.35475 197.17578 238.99805 C 200.37096 238.64134 203.36081 238.20595 206.1582 237.67969 C 208.9556 237.15343 211.56138 236.53559 213.98633 235.81445 C 216.41127 235.09332 218.65655 234.26946 220.73438 233.32812 C 222.8122 232.38679 224.72247 231.32749 226.47852 230.14062 C 228.23456 228.95376 229.83533 227.63937 231.29492 226.18164 C 232.75451 224.72392 234.07324 223.12305 235.26172 221.36914 C 236.45019 219.61524 237.50848 217.70822 238.45117 215.63281 C 239.39386 213.5574 240.22112 211.31482 240.94336 208.89258 C 241.6656 206.47033 242.28342 203.86862 242.81055 201.07422 C 243.33767 198.27982 243.77352 195.29149 244.13086 192.09961 C 244.4882 188.90772 244.76757 185.51118 244.98047 181.89648 C 245.40626 174.6671 245.56836 166.56672 245.56836 157.49414 L 245.56836 99.369141 C 245.56836 90.296531 245.40626 82.196202 244.98047 74.966797 C 244.76757 71.352094 244.4882 67.955563 244.13086 64.763672 C 243.77352 61.571781 243.33767 58.58542 242.81055 55.791016 C 242.28342 52.996611 241.6656 50.394901 240.94336 47.972656 C 240.22112 45.550411 239.39386 43.307833 238.45117 41.232422 C 237.50848 39.157011 236.45019 37.248043 235.26172 35.494141 C 234.07324 33.740238 232.75451 32.141314 231.29492 30.683594 C 229.83533 29.225873 228.23456 27.909521 226.47852 26.722656 C 224.72247 25.535792 222.8122 24.478444 220.73438 23.537109 C 218.65655 22.595775 216.41127 21.769959 213.98633 21.048828 C 211.56138 20.327698 208.9556 19.709846 206.1582 19.183594 C 203.36081 18.657341 200.37096 18.221935 197.17578 17.865234 C 193.9806 17.508534 190.58119 17.232005 186.96289 17.019531 C 179.72629 16.594583 171.61819 16.431641 162.53711 16.431641 L 88.599609 16.431641 z" transform="matrix(0.26458333,0,0,0.26458333,0,229.26666)"/>
  <path d="m 28.369747,245.78513 -4.655012,9.47952 v 7.83828 c -0.653513,0.76571 -1.367793,1.5373 -2.112531,2.28204 -2.44781,2.4478 -5.192145,4.58877 -7.027996,5.20071 l -3.092318,-3.08818 -9.479525,4.65501 v 22.58054 h 33.866666 v -42.01088 c -2.039491,-4.42431 -4.282038,-6.07499 -7.499284,-6.93704 z m -12.906705,30.29479 c 9.26e-4,-5.3e-4 0.0032,5.3e-4 0.0041,0 -0.345379,0.21569 -0.694661,0.42686 -1.045931,0.63665 0.351357,-0.20976 0.696343,-0.421 1.041803,-0.63665 z m -3.187402,1.86035 c 0.0011,-5.3e-4 0.0031,5.3e-4 0.0041,0 -0.362722,0.19832 -0.731389,0.3943 -1.099674,0.58705 0.368336,-0.19273 0.732771,-0.38875 1.095547,-0.58705 z" style="opacity:0.05;fill:#ff0000;fill-opacity:0"/>
  <path d="M 361.9375,-212 C 507.2348,-212 528,-191.28677 528,-46.125 V 70.125 C 528,215.28618 507.2348,236 361.9375,236 H 214.0625 C 68.7652,236 48,215.28618 48,70.125 V -46.125 C 48,-191.28677 68.7652,-212 214.0625,-212 Z" clip-path="url(#clipPath1082-3-75)" transform="matrix(0.13229167,0,0,0.13229167,-4.876802,261.66013)" style="opacity:0.4;fill:none;stroke:url(#linearGradient1108);stroke-width:8;stroke-linecap:round;stroke-linejoin:round"/>
  <path d="m 155.41127,137.99999 v 239.99999 c 0,0 121.72498,-49.19762 221.18971,-120.07579 0,-0.0217 -0.0115,-0.0398 -0.0253,-0.0645 -0.0115,-0.0263 -0.0264,-0.0523 -0.0448,-0.0786 -0.0191,-0.026 -0.0374,-0.0533 -0.0504,-0.0786 -0.0147,-0.0262 -0.0253,-0.0526 -0.0253,-0.0758 C 271.53919,184.48813 155.41146,138.00011 155.41146,138.00011 Z" transform="matrix(0.13229167,0,0,0.13229167,-0.03639302,229.38096)" style="opacity:0.4;fill:url(#linearGradient4413);filter:url(#filter4415)"/>
  <path d="m 155.41127,137.99999 v 239.99999 c 0,0 121.72498,-49.19762 221.18971,-120.07579 0,-0.0217 -0.0115,-0.0398 -0.0253,-0.0645 -0.0115,-0.0263 -0.0264,-0.0523 -0.0448,-0.0786 -0.0191,-0.026 -0.0374,-0.0533 -0.0504,-0.0786 -0.0147,-0.0262 -0.0253,-0.0526 -0.0253,-0.0758 C 271.53919,184.48813 155.41146,138.00011 155.41146,138.00011 Z" transform="matrix(0.13229167,0,0,0.13229167,-0.03639302,229.38096)" style="opacity:0.1;filter:url(#filter4460)"/>
  <path style="fill:url(#linearGradient4470)" d="m 20.523222,247.37263 v 31.75 c 0,0 16.103197,-6.50844 29.261553,-15.88503 0,-0.003 -0.0016,-0.005 -0.0034,-0.009 -0.0016,-0.003 -0.0035,-0.007 -0.0059,-0.0104 -0.0026,-0.003 -0.0049,-0.007 -0.0067,-0.0104 -0.0019,-0.003 -0.0034,-0.007 -0.0034,-0.01 C 35.885948,253.52263 20.52322,247.37265 20.52322,247.37265 Z"/>
  <path style="fill:#ffffff" d="m 20.523148,247.37263 v 0.26458 c 0,0 15.258393,6.10639 29.090138,15.72101 0.05704,-0.0405 0.114596,-0.0801 0.171566,-0.12067 0,-0.003 -0.0016,-0.005 -0.0034,-0.009 -0.0016,-0.003 -0.0035,-0.007 -0.006,-0.0103 -0.0026,-0.003 -0.005,-0.007 -0.0067,-0.0104 -0.0019,-0.003 -0.0034,-0.007 -0.0034,-0.0101 -13.879497,-9.6756 -29.24231,-15.82563 -29.24231,-15.82563 z"/>
  <path style="opacity:0.3;fill:url(#linearGradient4216)" d="M 40,52 V 68 H 60 V 52 Z m 204,0 v 16 h 20 V 52 Z M 40,76 V 92 H 60 V 76 Z m 204,0 v 16 h 20 V 76 Z M 40,100 v 16 h 20 v -16 z m 204,0 v 16 h 20 V 100 Z M 40,124 v 16 h 20 v -16 z m 204,0 v 16 h 20 V 124 Z M 40,148 v 16 h 20 v -16 z m 204,0 v 16 h 20 V 148 Z M 40,172 v 16 h 20 v -16 z m 204,0 v 16 h 20 V 172 Z M 40,196 v 16 h 20 v -16 z m 204,0 v 16 h 20 V 196 Z M 40,220 v 16 h 20 v -16 z m 204,0 v 16 h 20 V 220 Z M 40,244 v 16 h 20 v -16 z m 204,0 v 16 h 20 v -16 z" clip-path="url(#clipPath942-3)" transform="matrix(0.26458333,0,0,0.26458333,-6.993469,221.97263)"/>
 </g>
</svg>
